svg/Outline/pin.svg

<svg viewBox="0 0 24 24" xmlns="http://www.w3.org/2000/svg" width="24" height="24"><path fill-rule="evenodd" d="M15.21 2.38q.98-.28 1.94 0 .7.23 1.27.72.53.46 1.28 1.21l.06.06q.76.74 1.25 1.3.51.56.75 1.27.3.99 0 1.98-.24.71-.75 1.28-.48.55-1.25 1.3l-1.14 1.12c-.3.3-.38.38-.44.46q-.2.25-.27.55l-.07.63v.04q-.14 1.42-.26 2.3c-.1.58-.23 1.13-.53 1.57a3.5 3.5 0 0 1-3.84 1.4 4 4 0 0 1-1.41-.87q-.67-.57-1.68-1.6l-.94-.93-3.63 3.61a.95.95 0 0 1-1.33-1.35l3.6-3.59-.82-.81q-1.04-1-1.63-1.67c-.4-.45-.74-.9-.9-1.41a3.5 3.5 0 0 1 1.4-3.9c.44-.29 1-.42 1.58-.51q.89-.14 2.32-.25h.04l.62-.08q.3-.08.54-.26c.09-.05.17-.13.46-.42l1.24-1.22q.74-.75 1.28-1.2c.38-.33.78-.6 1.26-.73m1.41 1.82q-.44-.14-.88 0c-.12.03-.3.12-.58.36-.3.25-.66.6-1.2 1.13l-1.2 1.19-.04.04q-.33.34-.63.57a3.5 3.5 0 0 1-2.05.67h-.06c-1 .1-1.71.17-2.23.25a2 2 0 0 0-.84.23c-.57.38-.83 1.1-.62 1.75.03.1.13.3.5.7.34.4.85.9 1.57 1.61l3.07 3.03c.71.7 1.21 1.2 1.6 1.54.41.35.61.45.71.48.66.2 1.36-.06 1.74-.63.05-.08.14-.29.23-.82.08-.52.15-1.22.24-2.21v-.06c.04-.34.06-.6.13-.86q.16-.66.57-1.22.23-.3.6-.64l.04-.04 1.1-1.1c.55-.53.92-.9 1.18-1.2s.34-.46.37-.6q.15-.44 0-.89a2 2 0 0 0-.37-.59c-.26-.3-.63-.66-1.17-1.2s-.9-.88-1.2-1.13a2 2 0 0 0-.58-.36" clip-rule="evenodd"/></svg>

<svg viewBox="0 0 24 24" xmlns="http://www.w3.org/2000/svg" width="24" height="24"><path fill-rule="evenodd" d="M15.21 2.38Q16.19 2.1 17.15 2.38Q17.85 2.61 18.42 3.1Q18.95 3.56 19.7 4.31L19.76 4.37Q20.52 5.11 21.01 5.67Q21.52 6.23 21.76 6.94Q22.06 7.93 21.76 8.92Q21.52 9.63 21.01 10.2Q20.53 10.75 19.76 11.5L18.62 12.62C18.32 12.92 18.24 13 18.18 13.08Q17.98 13.33 17.91 13.63L17.84 14.3Q17.7 15.72 17.58 16.6C17.48 17.18 17.35 17.73 17.05 18.17A3.5 3.5 0 0 1 13.21 19.57A4 4 0 0 1 11.8 18.7Q11.13 18.13 10.12 17.1L9.18 16.17L5.55 19.78A.95 .95 0 0 1 4.22 18.43L7.82 14.84L7 14.03Q5.96 13.03 5.37 12.36C4.97 11.91 4.63 11.46 4.47 10.95A3.5 3.5 0 0 1 5.87 7.05C6.31 6.76 6.87 6.63 7.45 6.54Q8.34 6.4 9.77 6.29L10.43 6.21Q10.73 6.13 10.97 5.95C11.06 5.9 11.14 5.82 11.43 5.53L12.67 4.31Q13.41 3.56 13.95 3.11C14.33 2.78 14.73 2.51 15.21 2.38M16.62 4.2Q16.18 4.06 15.74 4.2C15.62 4.23 15.44 4.32 15.16 4.56C14.86 4.81 14.5 5.16 13.96 5.69L12.72 6.92Q12.39 7.26 12.09 7.49A3.5 3.5 0 0 1 10.04 8.16L9.98 8.16C8.98 8.26 8.27 8.33 7.75 8.41A2 2 0 0 0 6.91 8.64C6.34 9.02 6.08 9.74 6.29 10.39C6.32 10.49 6.42 10.69 6.79 11.09C7.13 11.49 7.64 11.99 8.36 12.7L11.43 15.73C12.14 16.43 12.64 16.93 13.03 17.27C13.44 17.62 13.64 17.72 13.74 17.75C14.4 17.95 15.1 17.69 15.48 17.12C15.53 17.04 15.62 16.83 15.71 16.3C15.79 15.78 15.86 15.08 15.95 14.09L15.95 14.03C15.99 13.69 16.01 13.43 16.08 13.17Q16.24 12.51 16.65 11.95Q16.88 11.65 17.25 11.31L18.39 10.17C18.94 9.64 19.31 9.27 19.57 8.97C19.83 8.67 19.91 8.51 19.94 8.37Q20.09 7.93 19.94 7.48A2 2 0 0 0 19.57 6.89C19.31 6.59 18.94 6.23 18.4 5.69C17.86 5.15 17.5 4.81 17.2 4.56A2 2 0 0 0 16.62 4.2" clip-rule="evenodd"/></svg>
